assets/img/pricing_table/SPA.svg

<?xml version="1.0" encoding="UTF-8"?>
<svg width="50px" height="50px" viewBox="0 0 50 50" version="1.1" xmlns="http://www.w3.org/2000/svg" xmlns:xlink="http://www.w3.org/1999/xlink">
    <!-- Generator: Sketch 48.2 (47327) - http://www.bohemiancoding.com/sketch -->
    <title>SPA Icon</title>
    <desc>Created with Sketch.</desc>
    <defs></defs>
    <g id="Desktop---Version-2-Copy" stroke="none" stroke-width="1" fill="none" fill-rule="evenodd" transform="translate(-155.000000, -4820.000000)">
        <g id="Pricing-section" transform="translate(0.000000, 4371.000000)">
            <g id="Cards" transform="translate(137.000000, 184.000000)">
                <g id="Early-Bird">
                    <g id="Text" transform="translate(19.000000, 144.000000)">
                        <g id="SPA" transform="translate(0.000000, 120.000000)">
                            <g id="SPA-Icon" transform="translate(0.000000, 2.000000)">
                                <path d="M24,0 C10.7519349,0 0,10.752 0,24 C0,37.2481143 10.7519349,48 24,48 C37.2480651,48 48,37.2481143 48,24 C48,10.752 37.2480651,0 24,0 Z" id="Path" stroke="#AE8A61" stroke-width="1.86666667" stroke-linecap="square"></path>
                                <path d="M24.3370537,4.57366069 L24.3370537,4.57812503 C24.111438,4.59591155 23.9175728,4.74516189 23.8426803,4.95872668 C23.7677878,5.17229146 23.8259785,5.40993236 23.991072,5.56473211 C24.2134754,5.78016069 24.3783166,6.16578926 24.377232,6.58258926 C24.3761669,6.99813211 24.2085269,7.38049291 23.9866069,7.59374994 C23.9813185,7.5981201 23.9761093,7.60258513 23.9709817,7.60714286 C23.9702377,7.60714431 23.9694937,7.60714431 23.9687497,7.60714286 C23.9536272,7.62341715 23.9394664,7.64055934 23.9263394,7.65848217 C23.4744891,8.12453931 23.2371131,8.7686536 23.2388389,9.44419646 C23.2406674,10.1441965 23.4946434,10.8154214 23.9821429,11.2812501 C24.2114517,11.4950937 24.5701317,11.4846302 24.7865846,11.2577826 C25.0030374,11.030935 24.9966777,10.6721588 24.7723211,10.453125 C24.5493943,10.2402107 24.3827634,9.85864994 24.381696,9.44196434 C24.3806309,9.02516434 24.5432366,8.6416536 24.7656251,8.42633931 C24.7693967,8.4226706 24.7731175,8.41894998 24.7767863,8.41517851 C24.787528,8.40375006 24.7952891,8.39198217 24.8058034,8.38169646 C24.8184455,8.36742067 24.8303652,8.35252107 24.8415177,8.3370536 C25.2819349,7.87579646 25.5183531,7.24504286 25.5200891,6.58035714 C25.5219177,5.88035714 25.2725051,5.2101 24.7879463,4.74107143 C24.6824431,4.63553303 24.5398433,4.5754488 24.3906251,4.57366069 C24.3727778,4.57282326 24.354901,4.57282326 24.3370537,4.57366069 Z M10.8348215,10.3214286 C10.7057993,10.321837 10.580712,10.3658929 10.4799107,10.4464286 C9.6398816,11.0979714 9.14837543,12.1022069 9.15178571,13.1651783 C9.15521429,14.228264 9.65360343,15.2311749 10.4977679,15.877232 C10.5064983,15.8841886 10.5154307,15.8908878 10.5245536,15.8973211 C11.0820878,16.3321783 11.4062853,16.997928 11.4040178,17.7053577 C11.401755,18.4148423 11.0723488,19.0821931 10.5089286,19.5133931 C10.2580581,19.7050902 10.2100886,20.0638621 10.4017857,20.3147325 C10.5934827,20.565603 10.9522546,20.6135725 11.203125,20.4218754 C12.047328,19.7758183 12.5434926,18.7729074 12.5468754,17.7098217 C12.5501897,16.6825074 12.0834606,15.7126103 11.2946429,15.0602674 C11.2785647,15.0428498 11.2614185,15.0264493 11.2433035,15.0111611 C11.2349378,14.9997326 11.2294142,14.995696 11.2209822,14.9888389 C11.2080152,14.97859 11.1946097,14.9689085 11.1808035,14.9598217 C10.6250961,14.5283931 10.2969122,13.8670606 10.2946429,13.1629463 C10.2923686,12.4534606 10.6201687,11.7830709 11.1808035,11.3482143 C11.3764051,11.1998293 11.4553734,10.9430921 11.3769762,10.7104294 C11.298579,10.4777666 11.0803373,10.3211763 10.8348215,10.3214286 Z M24.2611611,13.7254469 C23.7529017,13.6980183 23.2435623,13.7368034 22.745536,13.8236606 C19.757376,14.3694891 17.1406251,16.9623463 17.1406251,20.7165177 L17.1406251,29.6450891 C13.2082206,29.978232 10.1219578,30.5621611 8.15401783,31.3147326 C7.16708537,31.692104 6.44519394,32.0867783 6.01785714,32.6651783 C5.8041888,32.9544354 5.67659154,33.3242537 5.72098217,33.6941966 C5.76537303,34.0642537 5.96425234,34.3883714 6.23660709,34.6607143 C6.7813248,35.2055143 7.61631086,35.6019463 8.71651783,35.9665177 C9.81672503,36.3312034 11.1824555,36.642472 12.756696,36.9017851 C15.9051783,37.4203006 19.886592,37.7218286 24.1540183,37.7142857 C28.4214331,37.7028571 32.3744891,37.3915497 35.4799109,36.8616069 C37.0326217,36.5966926 38.3743737,36.2802 39.4464286,35.9107143 C40.5184834,35.5411143 41.3265623,35.1428709 41.8392857,34.5803566 C42.0956469,34.2990994 42.2727909,33.9557326 42.2857143,33.5825897 C42.29864,33.2094469 42.1411051,32.8569817 41.9107143,32.5781246 C41.4499326,32.0204103 40.7048651,31.6291531 39.6897326,31.256696 C37.7168697,30.5328103 34.6732251,29.9732103 30.8549109,29.6495531 L30.8549109,20.5714286 C30.8549109,16.9843429 28.5403497,14.8418754 25.7745531,13.993304 C25.2765954,13.8406183 24.7694194,13.7524183 24.2611611,13.7254469 Z M24.1964286,14.8616069 C24.6148846,14.8856069 25.032368,14.9599074 25.4397326,15.0848217 C25.8747417,15.2183074 26.280728,15.388472 26.6696434,15.5803566 C25.1837931,18.7570434 21.7929177,20.5946251 18.3191966,20.1049109 C18.6237143,16.7082251 21.4301154,14.7050354 24.1964286,14.8616069 Z M36.0178571,14.9084823 C35.7715247,14.9079142 35.5525473,15.0652528 35.4744979,15.2988942 C35.3964486,15.5325355 35.4768925,15.7898977 35.6741074,15.9374994 C36.2347417,16.3723566 36.5603211,17.0405143 36.5580354,17.75 C36.5557497,18.4594857 36.2263669,19.1268354 35.6629463,19.5580354 C35.6569073,19.5623832 35.6509538,19.5668484 35.6450891,19.5714286 C35.6413179,19.5750974 35.6375976,19.5788181 35.6339291,19.5825897 C34.7938983,20.2340183 34.3023931,21.2382537 34.3058034,22.3013394 C34.309232,23.3643109 34.8076217,24.367336 35.6517851,25.0133931 C35.8126813,25.1497599 36.0356066,25.1864225 36.2317011,25.1087669 C36.4277957,25.0311114 36.5651783,24.851763 36.5890872,24.6422115 C36.612996,24.43266 36.5195439,24.2269745 36.3459817,24.1071429 C35.7825851,23.6758286 35.4509474,23.0085931 35.4486606,22.2991074 C35.4463749,21.5896217 35.7741874,20.919232 36.3348217,20.4843749 C36.3423628,20.4800805 36.3498051,20.4756149 36.3571429,20.4709817 C37.2013451,19.8248103 37.697464,18.8220149 37.7008926,17.758928 C37.7043211,16.6958423 37.2150297,15.6894891 36.375,15.0379463 C36.2741987,14.9574106 36.1491113,14.9133547 36.0200891,14.9129463 C36.0193451,14.9129477 36.0186011,14.9129477 36.0178571,14.9129463 L36.0178571,14.9084823 Z M27.6473211,16.1741074 C28.7388446,16.987136 29.481304,18.1651394 29.6562503,19.8191966 C28.4752514,19.456568 27.3960046,18.8252069 26.495536,17.9687497 C26.9415726,17.4246354 27.3312834,16.8256503 27.6473211,16.1741074 Z M25.7209817,18.8080354 C26.1802731,19.2431211 26.6847863,19.6176286 27.2187497,19.9464286 C28.028312,21.9919143 27.7010206,24.5772823 26.4531246,26.122768 C25.8130777,26.9154537 25.0465771,27.330432 24.2812503,27.4129463 C23.5159234,27.495232 22.7323029,27.2557966 22.0178571,26.622768 C20.7396457,25.4903109 20.0886606,23.3198503 20.4174103,21.2633931 C22.4121977,21.0440789 24.2771669,20.1767211 25.7209817,18.8080354 Z M28.622768,20.6540183 C28.977608,20.795504 29.3404617,20.9103531 29.7120537,21.006696 L29.7120537,30.8571429 L27.3504469,30.8571429 C27.0189783,30.8571429 26.8677463,30.7772103 26.7366069,30.6495531 C26.6054686,30.5213246 26.4929726,30.301936 26.4174103,29.995536 C26.2705611,29.4001074 26.2911326,28.5427109 26.2924103,27.8013394 C26.67016,27.5385966 27.0292411,27.2310034 27.3437497,26.8415177 C28.670904,25.1978606 29.1107131,22.826704 28.622768,20.6540183 Z M18.2834823,21.25 C18.6072251,21.2911429 18.9287394,21.3101074 19.25,21.3169646 C18.9350686,23.6563931 19.6602651,26.0593931 21.2611611,27.4776789 C21.4094766,27.6091074 21.5700914,27.7088503 21.7276789,27.8169646 C21.7268229,28.5176503 21.7141474,29.360232 21.5491074,29.9665177 C21.4634846,30.281032 21.3393223,30.5189326 21.2075897,30.6540183 C21.0758571,30.7889897 20.9495931,30.8571429 20.6741074,30.8571429 L18.2834823,30.8571429 L18.2834823,21.25 Z M22.8616069,28.3839291 C23.3671166,28.541528 23.8879966,28.6046503 24.4040183,28.5491074 C24.6562903,28.5216789 24.9048583,28.4611863 25.1495531,28.3839291 C25.1449817,28.982328 25.1517246,29.6338 25.3080354,30.2678571 C25.4149611,30.7014571 25.594704,31.131432 25.9374994,31.4665177 C26.2802949,31.8016034 26.7830663,32 27.3504469,32 L29.7120537,32 L30.5915177,32 C31.4215623,32 31.997768,32.5469714 31.997768,33.1428571 L31.997768,36.1674103 C29.6267166,36.4150674 26.9722846,36.5664 24.1517851,36.5714286 C21.2256411,36.5828571 18.4567429,36.4252389 15.997768,36.1674103 L15.997768,33.1428571 C15.997768,32.5469714 16.5762046,32 17.4062503,32 L18.2834823,32 L20.6741074,32 C21.214136,32 21.700584,31.7852926 22.0267863,31.4508926 C22.3529874,31.1166069 22.5345817,30.6982571 22.6517851,30.2678571 C22.8232651,29.6380286 22.8531074,28.984272 22.8616069,28.3839291 Z M17.1406251,30.7924103 L17.1406251,30.881696 C15.8949554,31.0007817 14.8549109,31.9259429 14.8549109,33.1428571 L14.8549109,36.0379463 C14.1957634,35.9556606 13.5395749,35.8729531 12.9419646,35.7745531 C11.4092941,35.522096 10.0927675,35.2187246 9.0758928,34.881696 C8.05901817,34.5446674 7.34497977,34.1530217 7.04464286,33.8526789 C6.89448011,33.7025074 6.86077737,33.6069497 6.85491074,33.5580354 C6.84904789,33.5088926 6.850476,33.4620354 6.9375,33.3437497 C7.11154103,33.1080926 7.67215486,32.7221531 8.5625,32.381696 C10.3222385,31.7086674 13.3203257,31.1220103 17.1406251,30.7924103 Z M30.8549109,30.8035714 C34.5654549,31.1243714 37.5163497,31.6801326 39.2946423,32.3325897 C40.2177726,32.6713326 40.8212811,33.0584423 41.0312503,33.3125006 C41.1362331,33.4395863 41.1444457,33.5010469 41.1428571,33.5468754 C41.1412571,33.5925897 41.1233486,33.6719897 40.993304,33.8147326 C40.7332034,34.100104 40.058496,34.4952789 39.0736606,34.8348217 C38.0888263,35.1742503 36.7980034,35.483472 35.2879463,35.741072 C34.6185531,35.8553566 33.8905634,35.9537326 33.1406251,36.0468754 L33.1406251,33.1473211 C33.1406251,31.9296069 32.1013097,31.0043326 30.8549109,30.8861611 L30.8549109,30.8035714 Z" id="Shape" fill="#AE8A61" fill-rule="nonzero"></path>
                            </g>
                        </g>
                    </g>
                </g>
            </g>
        </g>
    </g>
</svg>

<svg width="50" height="50" viewBox="0 0 50 50" xmlns="http://www.w3.org/2000/svg"><title>SPA Icon</title><g transform="translate(1 1)" fill="none" fill-rule="evenodd"><path d="M24 0C10.752 0 0 10.752 0 24s10.752 24 24 24 24-10.752 24-24S37.248 0 24 0z" stroke="#AE8A61" stroke-width="1.867" stroke-linecap="square"/><path d="M24.337 4.574v.004a.571.571 0 0 0-.346.987c.222.215.387.6.386 1.018 0 .415-.168.797-.39 1.01a.571.571 0 0 0-.018.014.572.572 0 0 0-.043.051c-.452.467-.689 1.11-.687 1.786.002.7.256 1.371.743 1.837a.572.572 0 0 0 .79-.828c-.223-.213-.39-.594-.39-1.011-.001-.417.161-.8.384-1.016a.571.571 0 0 0 .01-.01c.012-.012.02-.024.03-.034a.571.571 0 0 0 .036-.045c.44-.461.676-1.092.678-1.757.002-.7-.247-1.37-.732-1.839a.571.571 0 0 0-.45-.167zM10.835 10.32a.571.571 0 0 0-.355.125 3.428 3.428 0 0 0 .045 5.451 2.283 2.283 0 0 1-.016 3.616.572.572 0 1 0 .694.909 3.43 3.43 0 0 0 1.344-2.712 3.43 3.43 0 0 0-1.252-2.65.571.571 0 0 0-.052-.049c-.008-.011-.014-.015-.022-.022a2.284 2.284 0 0 1-.04-3.64.571.571 0 0 0-.346-1.028zm13.426 3.404a6.725 6.725 0 0 0-1.515.099c-2.989.545-5.605 3.138-5.605 6.893v8.928c-3.933.333-7.019.917-8.987 1.67-.987.377-1.709.772-2.136 1.35-.214.29-.341.66-.297 1.03.044.37.243.693.516.966.544.545 1.38.94 2.48 1.306 1.1.364 2.465.675 4.04.935 3.148.518 7.13.82 11.397.812 4.267-.011 8.22-.322 11.326-.852 1.553-.265 2.894-.582 3.966-.951 1.072-.37 1.88-.768 2.393-1.33.257-.282.434-.625.447-.998.013-.374-.145-.726-.375-1.005-.461-.558-1.206-.949-2.221-1.321-1.973-.724-5.017-1.284-8.835-1.607V20.57c0-3.587-2.315-5.73-5.08-6.578a6.293 6.293 0 0 0-1.514-.268zm-.065 1.137a5.27 5.27 0 0 1 1.244.223c.435.133.84.303 1.23.495a7.991 7.991 0 0 1-8.35 4.525c.304-3.397 3.11-5.4 5.876-5.243zm11.822.046a.571.571 0 0 0-.344 1.03 2.284 2.284 0 0 1-.04 3.645 3.428 3.428 0 0 0 .018 5.43.571.571 0 1 0 .694-.906 2.286 2.286 0 0 1-.011-3.623.572.572 0 0 0 .022-.013 3.43 3.43 0 0 0 .018-5.433.571.571 0 0 0-.357-.125v-.005zm-8.37 1.266c1.09.813 1.833 1.991 2.008 3.645a7.98 7.98 0 0 1-3.16-1.85 9.084 9.084 0 0 0 1.151-1.795zm-1.927 2.634c.46.435.964.81 1.498 1.138.81 2.046.482 4.631-.766 6.177-.64.792-1.406 1.207-2.172 1.29-.765.082-1.549-.157-2.263-.79-1.278-1.133-1.93-3.303-1.6-5.36a9.172 9.172 0 0 0 5.303-2.455zm2.902 1.846c.355.142.717.256 1.09.353v9.85H27.35c-.331 0-.482-.08-.613-.207-.132-.129-.244-.348-.32-.654-.146-.596-.126-1.453-.125-2.195.378-.262.737-.57 1.052-.96 1.327-1.643 1.767-4.014 1.279-6.187zm-10.34.596a9.2 9.2 0 0 0 .967.067c-.315 2.34.41 4.742 2.011 6.16.148.132.31.232.467.34-.001.7-.014 1.543-.179 2.15-.086.314-.21.552-.341.687-.132.135-.258.203-.534.203h-2.39V21.25zm4.579 7.134c.505.158 1.026.22 1.542.165.252-.027.5-.088.746-.165-.005.598.002 1.25.158 1.884.107.433.287.863.63 1.199.342.335.845.533 1.412.533h3.242c.83 0 1.406.547 1.406 1.143v3.024a77.431 77.431 0 0 1-7.846.404 75.997 75.997 0 0 1-8.154-.404v-3.024c0-.596.578-1.143 1.408-1.143h3.268c.54 0 1.027-.215 1.353-.55.326-.333.508-.752.625-1.182.171-.63.201-1.284.21-1.884zm-5.721 2.408v.09c-1.246.119-2.286 1.044-2.286 2.26v2.896a51.006 51.006 0 0 1-1.913-.263c-1.533-.253-2.85-.556-3.866-.893-1.017-.337-1.731-.729-2.031-1.03-.15-.15-.184-.245-.19-.294-.006-.05-.005-.096.082-.214.175-.236.735-.622 1.625-.962 1.76-.673 4.758-1.26 8.579-1.59zm13.714.012c3.71.32 6.661.876 8.44 1.529.923.338 1.526.725 1.736.98.105.127.113.188.112.234-.002.046-.02.125-.15.268-.26.285-.935.68-1.92 1.02-.984.34-2.275.648-3.785.906-.67.114-1.397.213-2.147.306v-2.9c0-1.217-1.04-2.143-2.286-2.26v-.083z" fill="#AE8A61" fill-rule="nonzero"/></g></svg>
